X: 11928
T: Empty Bookcase, The
R: jig
M: 6/8
K: Dmixolydian
g|:gec d2e|c2e d2g|gec ded|cgg gaf|
gec d2e|c2e d2e|cAB ~c2A|1 GEA D2g:|2 GEA DEG||
|:Add dcd|egg geg|age gec|ded cAG|
Add dcd|egg geg|age gec|1 edc d2c:|2 edc d2g||

